X: 70
T: SINGLE JIGS: Old Favourite Set
T: Carraroe
C: C: Trad.; S: Various
C: Set Leaders: Tania, Anton, Sophie
Z: Anton Zille ed., Oleg Naumov arr.; JACKB / R-O-I-S-I-N / shanachie at The Session
N: https://thesession.org/members/26966/sets/92422
R: Jig
M: 6/8
L: 1/8
Q: 3/8=116
K: Dmaj
|:"D"DED F2A|"D"dfe d2A|"G"B/c/dB Adf|"G"afd "Asus4"e2f|
"D"DED F2A|"D"dfe d2A|"G"B/c/dB AFA|"G"dAF "Asus4"E2D:||
|:"D"dfa afa|"G"bge edB|"D/F#"dfa afa|"A"bge efe|
"D"dfa afa|"G"bge edB|"Em"d2B "D/F#"AFA|1 "G"dAF "A"E2D:|2 "G"dAF "A"E3||
T: Kevin McHugh's
R: Single Jig
M: 12/8
K: Gmaj
|:"G"B2d ded BAB G2B|"C"AGE DEG "D"AGE D3|
"G"Bdd ded BAB G2B|"C"AGE DEG "D"AGF G2A:||
|:"G"BAB GAB "C"cBc ABc|"G (Em)"B2G GFG "D"ABc d2c|
"G"B2G GAB "C"cec "(G/B)"BdB|"Am"AGE DEG "D"AGF G2A:||
T: Old Favourite
M: 12/8
K: Gmaj
|:"G"B3 BAB dBA G2B|"C"ded d2B "D"ded B2A|
"G"~B3 BAB dBA "G"G2B|1 "C"ded "D"cBA "G"G3 "D"G2A:|2 "C"ded "D"cBA "G"G3 "D"GBd||
"Em"g3 "D"fgf "C"e/f/ge d2B|"Am"ded d2B "D"ded B2d|
"Em"~g3 "D"fgf "C"ege d2B|"D"ded cBA "G"G2G GBd|
"Em"g2g "D"fgf "C"e/f/ge "D/B"d2B|"Am"ded d2B "D"ded B2d|
"Em"~g3 "D"fgf|"C"ege "D/B"edB|"C"dge dge "D"dge dBA||

